papirus/48x48/apps/0ad.svg

<svg height="48" viewBox="0 0 48 48.000001" width="48" xmlns="http://www.w3.org/2000/svg"><path d="m24 4a20 20 0 0 0 -20 20 20 20 0 0 0  20 20 20 20 0 0 0  20-20 20 20 0 0 0 -20-20z" fill="#c8ab37"/><path d="m24 4a20 20 0 0 0 -19.859375 17.851562 20 19.000017 0 0 1  19.859375-16.851562 20 19.000017 0 0 1  19.921875 17.447266 20 20 0 0 0 -19.921875-18.447266zm19.921875 18.447266a20 20 0 0 1  .078125 1.552734 20 19.000017 0 0 0 -.078125-1.552734zm-39.78125-.595704a20 19.000017 0 0 0 -.048828.392579 20 20 0 0 1  .048828-.392579zm-.048828.392579a20 20 0 0 0 -.091797 1.755859 20 19.000017 0 0 1  .0917969-1.755859z" fill="#fff" opacity=".2"/><path d="m24 44a20 20 0 0 1 -19.859375-17.8516 20 19.000017 0 0 0  19.859375 16.8516 20 19.000017 0 0 0  19.921875-17.4473 20 20 0 0 1 -19.921875 18.4473zm19.921875-18.4473a20 20 0 0 0  .078125-1.5527 20 19.000017 0 0 1 -.07813 1.5527zm-39.78125.5957a20 19.000017 0 0 1 -.048828-.3925 20 20 0 0 0  .048828.3925zm-.048828-.3925a20 20 0 0 1 -.091797-1.7559 20 19.000017 0 0 0  .091797 1.7559z" opacity=".3"/><path d="m26 9.14025v13.859375h13.853516a16 16 0 0 0 -13.853516-13.859375zm-4 .00586a16 16 0 0 0 -13.859375 13.853515h13.859375v-13.8535156zm-13.8535156 17.853515a16 16 0 0 0 13.8535156 13.859375v-13.859375zm17.8535156 0v13.853516a16 16 0 0 0 13.859375-13.853516z" opacity=".2"/><path d="m26 8.140625v13.859375h13.853516a16 16 0 0 0 -13.853516-13.859375zm-4 .0058594a16 16 0 0 0 -13.859375 13.8535156h13.859375zm-13.8535156 17.8535156a16 16 0 0 0 13.8535156 13.859375v-13.859375zm17.8535156 0v13.853516a16 16 0 0 0 13.859375-13.853516z" fill="#fff"/></svg>

<?xml version="1.0" encoding="UTF-8" standalone="no"?>
<svg
   xmlns:dc="http://purl.org/dc/elements/1.1/"
   xmlns:cc="http://creativecommons.org/ns#"
   xmlns:rdf="http://www.w3.org/1999/02/22-rdf-syntax-ns#"
   xmlns:svg="http://www.w3.org/2000/svg"
   xmlns="http://www.w3.org/2000/svg"
   xmlns:sodipodi="http://sodipodi.sourceforge.net/DTD/sodipodi-0.dtd"
   xmlns:inkscape="http://www.inkscape.org/namespaces/inkscape"
   version="1.1"
   id="svg4261"
   viewBox="0 0 48 48.000001"
   height="48"
   width="48"
   inkscape:version="0.91 r13725"
   sodipodi:docname="0ad.svg">
  <sodipodi:namedview
     pagecolor="#828282"
     bordercolor="#666666"
     borderopacity="1"
     objecttolerance="10"
     gridtolerance="10"
     guidetolerance="10"
     inkscape:pageopacity="0"
     inkscape:pageshadow="2"
     inkscape:window-width="1600"
     inkscape:window-height="849"
     id="namedview10"
     showgrid="false"
     inkscape:zoom="8.08"
     inkscape:cx="24"
     inkscape:cy="24"
     inkscape:window-x="0"
     inkscape:window-y="0"
     inkscape:window-maximized="1"
     inkscape:current-layer="svg4261" />
  <defs
     id="defs4263" />
  <metadata
     id="metadata4266">
    <rdf:RDF>
      <cc:Work
         rdf:about="">
        <dc:format>image/svg+xml</dc:format>
        <dc:type
           rdf:resource="http://purl.org/dc/dcmitype/StillImage" />
        <dc:title></dc:title>
      </cc:Work>
    </rdf:RDF>
  </metadata>
  <path
     style="opacity:1;fill:#c8ab37;fill-opacity:1;stroke:none;stroke-width:0.2;stroke-miterlimit:4;stroke-dasharray:none;stroke-opacity:1"
     d="M 24,4 A 20,20 0 0 0 4,24 20,20 0 0 0 24,44 20,20 0 0 0 44,24 20,20 0 0 0 24,4 Z"
     id="path4153" />
  <path
     inkscape:connector-curvature="0"
     style="opacity:0.2;fill:#ffffff;fill-opacity:1;stroke:none;stroke-width:10;stroke-miterlimit:4;stroke-dasharray:none;stroke-opacity:1"
     d="M 24,4 A 20,20 0 0 0 4.140625,21.851562 20,19.000017 0 0 1 24,5 20,19.000017 0 0 1 43.921875,22.447266 20,20 0 0 0 24,4 Z M 43.921875,22.447266 A 20,20 0 0 1 44,24 20,19.000017 0 0 0 43.921875,22.447266 Z M 4.140625,21.851562 A 20,19.000017 0 0 0 4.091797,22.244141 20,20 0 0 1 4.140625,21.851562 Z M 4.091797,22.244141 A 20,20 0 0 0 4,24 20,19.000017 0 0 1 4.0917969,22.244141 Z"
     id="path4152" />
  <path
     inkscape:connector-curvature="0"
     id="path4160"
     d="M 24,44 A 20,20 0 0 1 4.140625,26.1484 20,19.000017 0 0 0 24,43 20,19.000017 0 0 0 43.921875,25.5527 20,20 0 0 1 24,44 Z M 43.921875,25.5527 A 20,20 0 0 0 44,24 20,19.000017 0 0 1 43.92187,25.5527 Z M 4.140625,26.1484 A 20,19.000017 0 0 1 4.091797,25.7559 20,20 0 0 0 4.140625,26.1484 Z M 4.091797,25.7559 A 20,20 0 0 1 4,24 20,19.000017 0 0 0 4.091797,25.7559 Z"
     style="opacity:0.3;fill:#000000;fill-opacity:1;stroke:none;stroke-width:10;stroke-miterlimit:4;stroke-dasharray:none;stroke-opacity:1" />
  <path
     id="path4164"
     d="m 26,9.14025 0,13.859375 13.853516,0 A 16,16 0 0 0 26,9.14025 Z m -4,0.00586 A 16,16 0 0 0 8.140625,22.999625 L 22,22.999625 22,9.1461094 Z M 8.1464844,26.999625 A 16,16 0 0 0 22,40.859 l 0,-13.859375 -13.8535156,0 z m 17.8535156,0 0,13.853516 A 16,16 0 0 0 39.859375,26.999625 l -13.859375,0 z"
     style="opacity:0.2;fill:#000000;fill-opacity:1;stroke:none;stroke-width:2;stroke-linecap:butt;stroke-linejoin:miter;stroke-miterlimit:4;stroke-dasharray:none;stroke-opacity:1"
     inkscape:connector-curvature="0" />
  <path
     style="opacity:1;fill:#ffffff;fill-opacity:1;stroke:none;stroke-width:2;stroke-linecap:butt;stroke-linejoin:miter;stroke-miterlimit:4;stroke-dasharray:none;stroke-opacity:1"
     d="M 26 8.140625 L 26 22 L 39.853516 22 A 16 16 0 0 0 26 8.140625 z M 22 8.1464844 A 16 16 0 0 0 8.140625 22 L 22 22 L 22 8.1464844 z M 8.1464844 26 A 16 16 0 0 0 22 39.859375 L 22 26 L 8.1464844 26 z M 26 26 L 26 39.853516 A 16 16 0 0 0 39.859375 26 L 26 26 z "
     id="path4155" />
</svg>
